_inc/images/buttons/dualsense/start.svg

<?xml version="1.0" encoding="UTF-8" standalone="no"?>
<svg
   id="Layer_1"
   data-name="Layer 1"
   viewBox="0 0 4.6439147 10"
   version="1.1"
   sodipodi:docname="start.svg"
   width="4.6439147"
   height="10"
   inkscape:version="1.3.2 (091e20e, 2023-11-25, custom)"
   xmlns:inkscape="http://www.inkscape.org/namespaces/inkscape"
   xmlns:sodipodi="http://sodipodi.sourceforge.net/DTD/sodipodi-0.dtd"
   xmlns="http://www.w3.org/2000/svg"
   xmlns:svg="http://www.w3.org/2000/svg">
  <sodipodi:namedview
     id="namedview3"
     pagecolor="#505050"
     bordercolor="#eeeeee"
     borderopacity="1"
     inkscape:showpageshadow="0"
     inkscape:pageopacity="0"
     inkscape:pagecheckerboard="0"
     inkscape:deskcolor="#505050"
     inkscape:zoom="35.53125"
     inkscape:cx="2.9973615"
     inkscape:cy="6.937555"
     inkscape:window-width="2560"
     inkscape:window-height="1351"
     inkscape:window-x="-9"
     inkscape:window-y="-9"
     inkscape:window-maximized="1"
     inkscape:current-layer="Layer_1" />
  <defs
     id="defs1">
    <style
       id="style1">.cls-1{fill:none;stroke:#fff;stroke-miterlimit:10;stroke-width:20px;}.cls-2{fill:#fff;}</style>
  </defs>
  <path
     style="color:#000000;fill:#ffffff;stroke:#ffffff;stroke-width:0.48962px;stroke-miterlimit:10;-inkscape-stroke:none"
     d="M 1.3148938,1.0673716 H 4.3737953"
     id="path4" />
  <path
     style="color:#000000;fill:#ffffff;stroke:#ffffff;stroke-width:0.48962px;stroke-miterlimit:10;-inkscape-stroke:none"
     d="M 1.3148938,0.24481 H 4.3737953"
     id="path6" />
  <path
     style="color:#000000;fill:#ffffff;stroke:#ffffff;stroke-width:0.48962px;stroke-miterlimit:10;-inkscape-stroke:none"
     d="M 1.3148938,1.8901785 H 4.3737953"
     id="path8" />
  <path
     class="cls-2"
     d="M 3.1164508,2.6057582 C 2.6909708,2.5166472 2.2508018,2.5597337 1.8772218,2.726939 1.4541903,2.9161772 1.1376508,3.2493635 0.96138781,3.6905114 l -0.00345,0.0093 c -0.071974,0.1997678 -0.2423615,0.9951551 -0.49402649,2.1859116 -0.1566785,0.742509 -0.318253,1.510478 -0.3748045,1.6999605 -0.1630435,0.541765 -0.101596,1.0597825 0.178222,1.498483 0.24309649,0.3816585 0.63650599,0.6722485 1.10605198,0.81791 A 2.1565315,2.1565315 0 0 0 2.0099118,10 c 0.7344295,0 1.4632295,-0.3877785 1.745251,-1.273012 l 0.00588,-0.018115 0.00345,-0.01836 C 3.8230028,8.369812 3.9720923,7.686792 4.1299948,6.9638685 4.3478753,5.965288 4.5733453,4.931945 4.6399338,4.501079 l 0.0027,-0.01738 V 4.465825 C 4.6798073,3.4082455 3.9018008,2.7700257 3.1164508,2.6057582 Z"
     id="path3"
     style="fill:#ffffff;stroke-width:0.0244811" />
</svg>

<svg xmlns="http://www.w3.org/2000/svg" width="4.644" height="10" data-name="Layer 1" viewBox="0 0 4.644 10"><path d="M1.315 1.067h3.059M1.315.245h3.059M1.315 1.89h3.059" style="color:#000;fill:#fff;stroke:#fff;stroke-width:.48962px;stroke-miterlimit:10;-inkscape-stroke:none"/><path d="M3.116 2.606a2.04 2.04 0 0 0-1.239.12 1.74 1.74 0 0 0-.916.965L.958 3.7c-.072.2-.242.995-.494 2.186-.157.742-.318 1.51-.375 1.7-.163.541-.101 1.06.178 1.498.243.382.637.672 1.106.818A2.2 2.2 0 0 0 2.01 10c.734 0 1.463-.388 1.745-1.273l.006-.018.003-.018c.059-.321.208-1.004.366-1.727.218-.999.443-2.032.51-2.463l.003-.017v-.018c.037-1.058-.741-1.696-1.527-1.86" style="fill:#fff;stroke-width:.0244811"/></svg>
